third_party/noto/noto_2/emoji_u1f9c0.svg

<svg enable-background="new 0 0 128 128" version="1.1" viewBox="0 0 128 128" xmlns="http://www.w3.org/2000/svg"><path d="m48.18 68.45-41.48 1.5s-2.63-2.63-2.25-3.57 34.73-27.78 36.04-27.59 4.32 3.38 6.76 2.25 0-7.7 0.75-8.63c0.75-0.94 27.59-15.39 29.28-16.14s3.19-2.44 6.57-1.69 11.83 2.25 21.02 8.45 18.77 13.33 18.02 17.27-74.71 28.15-74.71 28.15z" fill="#FFE265"/><path d="m19.46 115.57c9.2-1.13 94.98-19.52 98.55-20.08s5.82-3.94 5.82-7.7-0.94-47.49-0.94-47.49-4.13 1.31-9.01 2.44c-4.88 1.12-44.87 10.88-60.63 14.45s-40.92 10.14-43.74 10.14-5.07-0.94-5.07-0.94 0.75 39.04 0.94 41.86 1.5 6.19 4.69 7.13 5.27 0.69 9.39 0.19z" fill="#FEB502"/><path d="m74.97 25.56c0 2.4 2.44 3.99 6.48 3.87 4.41-0.13 5.63-2.75 5.49-4.43-0.14-1.69-2.17-3.17-6.19-3.1-3.73 0.07-5.78 1.55-5.78 3.66z" fill="#FF8B0D"/><path d="m29.92 55.48c-6.5 2.19-5.77 7.88-3.87 9.15s4.43 1.2 7.39 0.14 4.84-2.27 5.14-4.25c0.28-1.88-2.18-7.23-8.66-5.04z" fill="#ED6B31"/><path d="m88.98 39.22c-4.36 0.2-9.18 3.33-10.98 6.34-1.9 3.17-2.04 6.9 2.32 9.22s19.78-3.59 19.01-9.01c-0.77-5.43-5.77-6.76-10.35-6.55z" fill="#ED6B31"/><path d="m73.85 83.07s6.19-4.58 6.19-7.81c0-3.24-2.67-10.89-14.01-11.47-10.63-0.55-17.18 13.94-10.21 21.4s11.19 4.08 13.8 3.38c2.61-0.71 4.23-5.5 4.23-5.5z" fill="#ED6B31"/><path d="m43.23 96.09s6.15-3.85 1.43-8.07c-3.32-2.97-7.76-1.63-10.02 0.68-2.89 2.96-2.11 7.67 0.56 9.78 2.68 2.12 8.03-2.39 8.03-2.39z" fill="#ED6B31"/><path d="m22.39 78.78s-0.7-2.21-3.21-3.1c-2.82-1-7.03 2.51-5.23 6.26 1.62 3.38 5.21 2.39 5.21 2.39l3.23-5.55z" fill="#ED6B31"/><path d="m112.42 82.01c0.61-0.66 4.6-3.54 4.6-5.73 0-2.18-6.01-8.92-13.68-3.85s-3.66 12.74-1.55 14.01 7.96-1.54 10.63-4.43z" fill="#ED6B31"/><path d="m30.86 58.93c-4.27 1.48-5.88 4.5-4.81 5.7 1.13 1.27 3.59 2.11 7.88 0.56 3.32-1.2 5-3.21 4.72-5-0.2-1.3-3.92-2.6-7.79-1.26z" fill="#FF8B0D"/><path d="m16.62 78.63c-1.87 2.34-0.35 5 1.41 5.63s4.86-1.27 4.65-4.43c-0.22-3.17-4.37-3.31-6.06-1.2z" fill="#FF8B0D"/><path d="m38.37 91.38c-4.02 3.26-4.13 6.45-2.58 7.53 1.08 0.76 5.06 2.34 8.7-0.35 2.7-1.99 2.75-6.17 1.9-8.17-0.71-1.7-4.64-1.76-8.02 0.99z" fill="#FF8B0D"/><path d="m62.77 73.61c-5.38 5.23-6.66 13.72-1.38 15.72 4.65 1.76 11.33 0.7 15.27-4.15 4.14-5.1 4.58-10.73 1.92-14.05-3.18-3.99-11.65-1.55-15.81 2.48z" fill="#FF8B0D"/><path d="m87.22 44.43c-7.04 2.39-11.19 7.46-7.6 10 3.59 2.53 7.32 2.16 11.4 0.77 4.63-1.57 8.17-5.21 8.31-8.66 0.11-2.83-5.91-4.22-12.11-2.11z" fill="#FF8B0D"/><path d="m106.02 76.8c-4.79 3.9-6.19 7.81-4.22 9.64s6.69 2.67 11.05-0.35c4.53-3.14 4.86-6.7 4.36-9.57-0.56-3.23-6.27-3.73-11.19 0.28z" fill="#FF8B0D"/></svg>

<?xml version="1.0" encoding="utf-8"?>
<!-- Generator: Adobe Illustrator 25.2.3, SVG Export Plug-In . SVG Version: 6.00 Build 0)  -->
<svg version="1.1" id="Layer_2" xmlns="http://www.w3.org/2000/svg" xmlns:xlink="http://www.w3.org/1999/xlink" x="0px" y="0px"
	 viewBox="0 0 128 128" style="enable-background:new 0 0 128 128;" xml:space="preserve">
<path style="fill:#FFE265;" d="M48.18,68.45L6.7,69.95c0,0-2.63-2.63-2.25-3.57s34.73-27.78,36.04-27.59s4.32,3.38,6.76,2.25
	c2.44-1.13,0-7.7,0.75-8.63c0.75-0.94,27.59-15.39,29.28-16.14c1.69-0.75,3.19-2.44,6.57-1.69s11.83,2.25,21.02,8.45
	s18.77,13.33,18.02,17.27C122.14,44.24,48.18,68.45,48.18,68.45z"/>
<path style="fill:#FEB502;" d="M19.46,115.57c9.2-1.13,94.98-19.52,98.55-20.08c3.57-0.56,5.82-3.94,5.82-7.7
	s-0.94-47.49-0.94-47.49s-4.13,1.31-9.01,2.44C109,43.86,69.01,53.62,53.25,57.19S12.33,67.33,9.51,67.33s-5.07-0.94-5.07-0.94
	s0.75,39.04,0.94,41.86c0.19,2.82,1.5,6.19,4.69,7.13S15.34,116.07,19.46,115.57z"/>
<path style="fill:#FF8B0D;" d="M74.97,25.56c0,2.4,2.44,3.99,6.48,3.87c4.41-0.13,5.63-2.75,5.49-4.43
	c-0.14-1.69-2.17-3.17-6.19-3.1C77.02,21.97,74.97,23.45,74.97,25.56z"/>
<path style="fill:#ED6B31;" d="M29.92,55.48c-6.5,2.19-5.77,7.88-3.87,9.15c1.9,1.27,4.43,1.2,7.39,0.14
	c2.96-1.06,4.84-2.27,5.14-4.25C38.86,58.64,36.4,53.29,29.92,55.48z"/>
<path style="fill:#ED6B31;" d="M88.98,39.22c-4.36,0.2-9.18,3.33-10.98,6.34c-1.9,3.17-2.04,6.9,2.32,9.22
	c4.36,2.32,19.78-3.59,19.01-9.01C98.56,40.34,93.56,39.01,88.98,39.22z"/>
<path style="fill:#ED6B31;" d="M73.85,83.07c0,0,6.19-4.58,6.19-7.81c0-3.24-2.67-10.89-14.01-11.47
	c-10.63-0.55-17.18,13.94-10.21,21.4c6.97,7.46,11.19,4.08,13.8,3.38C72.23,87.86,73.85,83.07,73.85,83.07z"/>
<path style="fill:#ED6B31;" d="M43.23,96.09c0,0,6.15-3.85,1.43-8.07c-3.32-2.97-7.76-1.63-10.02,0.68
	c-2.89,2.96-2.11,7.67,0.56,9.78C37.88,100.6,43.23,96.09,43.23,96.09z"/>
<path style="fill:#ED6B31;" d="M22.39,78.78c0,0-0.7-2.21-3.21-3.1c-2.82-1-7.03,2.51-5.23,6.26c1.62,3.38,5.21,2.39,5.21,2.39
	L22.39,78.78z"/>
<path style="fill:#ED6B31;" d="M112.42,82.01c0.61-0.66,4.6-3.54,4.6-5.73c0-2.18-6.01-8.92-13.68-3.85
	c-7.67,5.07-3.66,12.74-1.55,14.01C103.9,87.71,109.75,84.9,112.42,82.01z"/>
<path style="fill:#FF8B0D;" d="M30.86,58.93c-4.27,1.48-5.88,4.5-4.81,5.7c1.13,1.27,3.59,2.11,7.88,0.56c3.32-1.2,5-3.21,4.72-5
	C38.45,58.89,34.73,57.59,30.86,58.93z"/>
<path style="fill:#FF8B0D;" d="M16.62,78.63c-1.87,2.34-0.35,5,1.41,5.63c1.76,0.63,4.86-1.27,4.65-4.43
	C22.46,76.66,18.31,76.52,16.62,78.63z"/>
<path style="fill:#FF8B0D;" d="M38.37,91.38c-4.02,3.26-4.13,6.45-2.58,7.53c1.08,0.76,5.06,2.34,8.7-0.35
	c2.7-1.99,2.75-6.17,1.9-8.17C45.68,88.69,41.75,88.63,38.37,91.38z"/>
<path style="fill:#FF8B0D;" d="M62.77,73.61c-5.38,5.23-6.66,13.72-1.38,15.72c4.65,1.76,11.33,0.7,15.27-4.15
	c4.14-5.1,4.58-10.73,1.92-14.05C75.4,67.14,66.93,69.58,62.77,73.61z"/>
<path style="fill:#FF8B0D;" d="M87.22,44.43c-7.04,2.39-11.19,7.46-7.6,10c3.59,2.53,7.32,2.16,11.4,0.77
	c4.63-1.57,8.17-5.21,8.31-8.66C99.44,43.71,93.42,42.32,87.22,44.43z"/>
<path style="fill:#FF8B0D;" d="M106.02,76.8c-4.79,3.9-6.19,7.81-4.22,9.64s6.69,2.67,11.05-0.35c4.53-3.14,4.86-6.7,4.36-9.57
	C116.65,73.29,110.94,72.79,106.02,76.8z"/>
</svg>
